header-icon.svg

<svg width="64" height="64" viewBox="0 0 64 64" fill="none" xmlns="http://www.w3.org/2000/svg">
<path d="M57.6 16.8167H6.4C5.08373 16.8167 4.01667 17.8838 4.01667 19.2V44.8C4.01667 46.1161 5.08372 47.1834 6.4 47.1834H57.6C58.9161 47.1834 59.9833 46.1161 59.9833 44.8V19.2C59.9833 17.8838 58.9161 16.8167 57.6 16.8167ZM0.25 19.2C0.25 15.8035 3.00345 13.05 6.4 13.05H57.6C60.9964 13.05 63.75 15.8035 63.75 19.2V44.8C63.75 48.1965 60.9964 50.95 57.6 50.95H6.4C3.00345 50.95 0.25 48.1965 0.25 44.8V19.2ZM8.78333 21.5834H12.55V25.35H8.78333V21.5834ZM17.3167 25.35V21.5834H21.0833V25.35H17.3167ZM25.85 21.5834H29.6167V25.35H25.85V21.5834ZM34.3833 25.35V21.5834H38.15V25.35H34.3833ZM42.9167 21.5834H46.6833V25.35H42.9167V21.5834ZM51.45 25.35V21.5834H55.2167V25.35H51.45ZM47.1833 30.1167H50.95V33.8834H47.1833V30.1167ZM51.45 42.4167V38.65H55.2167V42.4167H51.45ZM38.65 30.1167H42.4167V33.8834H38.65V30.1167ZM30.1167 33.8834V30.1167H33.8833V33.8834H30.1167ZM21.5833 30.1167H25.35V33.8834H21.5833V30.1167ZM13.05 33.8834V30.1167H16.8167V33.8834H13.05ZM8.78333 38.65H12.55V42.4167H8.78333V38.65ZM17.3167 42.4167V38.65H46.6833V42.4167H17.3167Z" fill="url(#paint0_linear_1203_292)" stroke="black" stroke-width="0.5"/>
<defs>
<linearGradient id="paint0_linear_1203_292" x1="64" y1="12.8" x2="2.13334" y2="49.0667" gradientUnits="userSpaceOnUse">
<stop stop-color="#FFF503"/>
<stop offset="1" stop-color="#F9A400"/>
</linearGradient>
</defs>
</svg>

<svg width="64" height="64" fill="none" xmlns="http://www.w3.org/2000/svg"><path d="M57.6 16.817H6.4A2.383 2.383 0 004.017 19.2v25.6A2.384 2.384 0 006.4 47.183h51.2a2.384 2.384 0 002.383-2.383V19.2a2.383 2.383 0 00-2.383-2.383zM.25 19.2a6.15 6.15 0 016.15-6.15h51.2a6.15 6.15 0 016.15 6.15v25.6a6.15 6.15 0 01-6.15 6.15H6.4A6.15 6.15 0 01.25 44.8V19.2zm8.533 2.383h3.767v3.767H8.783v-3.767zm8.534 3.767v-3.767h3.766v3.767h-3.766zm8.533-3.767h3.767v3.767H25.85v-3.767zm8.533 3.767v-3.767h3.767v3.767h-3.767zm8.534-3.767h3.766v3.767h-3.766v-3.767zm8.533 3.767v-3.767h3.767v3.767H51.45zm-4.267 4.767h3.767v3.766h-3.767v-3.766zm4.267 12.3V38.65h3.767v3.767H51.45zm-12.8-12.3h3.767v3.766H38.65v-3.766zm-8.533 3.766v-3.766h3.766v3.766h-3.766zm-8.534-3.766h3.767v3.766h-3.767v-3.766zm-8.533 3.766v-3.766h3.767v3.766H13.05zM8.783 38.65h3.767v3.767H8.783V38.65zm8.534 3.767V38.65h29.366v3.767H17.317z" fill="url(#prefix__paint0_linear_1203_292)" stroke="#000" stroke-width=".5"/><defs><linearGradient id="prefix__paint0_linear_1203_292" x1="64" y1="12.8" x2="2.133" y2="49.067" gradientUnits="userSpaceOnUse"><stop stop-color="#FFF503"/><stop offset="1" stop-color="#F9A400"/></linearGradient></defs></svg>
